X: 30625
T: One Track Zach
R: reel
M: 4/4
K: Dmajor
|:FDGE FDDE|FAGF GEEF|GAGF GEEF|GA (3Bcd cADE|
FDGE FDDE|FAGF GEEF|GAGF GEEF|1 GABc d2 DE:|2 GABc d4||
|:fdcd BcAB|GAFG E3F|GFED CDEF|GA (3Bcd cAde|
fdcd BcAB|GAFG E3F|GFED CDEF|GABc d4:|

